!!!COM: Mozart, Wolfgang Amadeus
!!!CDT: 1756/01/27/-1791/12/05/
!!!CNT: German
!!!OTL: Piano Sonata No. 3 in B-flat major
!!!SCT1: K<sup>1</sup> 281
!!!SCT2: K<sup>6</sup> 189f
!!!OMV: Mvmt. 3
!!!OMD: Rondo: Allegro
!!!ODT: 1774///
**kern	**kern	**dynam
*staff2	*staff1	*staff1/2
*clefG2	*clefG2	*clefG2
*>[A,B,B,C,C,D]	*>[A,B,B,C,C,D]	*>[A,B,B,C,C,D]
*>[A,B,C,D]	*>[A,B,C,D]	*>[A,B,C,D]
*>A	*>A	*>A
*k[b-e-]	*k[b-e-]	*k[b-e-]
*B-:	*B-:	*B-:
*M2/2	*M2/2	*M2/2
*met(c|)	*met(c|)	*met(c|)
*MM160	*MM160	*MM160
4r	(4ff\	p
4Bn/ 4g/	4gg\)	.
=1	=1	=1
2c/ 2g/	(8ff\L	.
.	8ee-\	.
.	8dd\	.
.	8cc\J)	.
4r	(4ee-\	.
4A/ 4f/	4ff\)	.
=2	=2	=2
*^	*	*
2B-/ 2f/	2.r	(8ee-\L	.
.	.	8dd\	.
.	.	8cc\	.
.	.	8b-\J)	.
4r	.	(4ff\	.
4b-/	4d\	4bb-\)	.
=3	=3	=3	=3
2b-/	4e-\	(8aa\L	.
.	.	8gg\)	.
.	4d\	(8gg\	.
.	.	8ff\J)	.
4a/	4c\	(8ff\L	.
.	.	8ee-\)	.
4b-/	4B-\	(8ee-\	.
.	.	8dd\J)	.
=4	=4	=4	=4
(4b-/	2f\	(4dd\	.
4a/)	.	4cc\)	.
2r	4r	(8ff\L	f
.	.	8een\)	.
*clefF4	*clefF4	*	*
.	4BBn\ 4Bn\	(8ff\	.
.	.	8gg\J)	.
*v	*v	*	*
=5	=5	=5
4C\ 4c\	(8ff\L	.
.	8ee-\	.
4E-\ 4e-\	8dd\	.
.	8cc\J)	.
4r	(8ee-\L	.
.	8dd\)	.
4AA\ 4A\	(8ee-\	.
.	8ff\J)	.
=6	=6	=6
*^	*	*
2.r	4BB-\ 4B-\	(8ee-\L	.
.	.	8dd\	.
.	4D\ 4d\	8cc\	.
.	.	8b-\J)	.
.	4r	(8b-\L	.
.	.	8dd\)	.
4B-/	4D\	(8ff\	.
.	.	8bb-\J)	.
=7	=7	=7	=7
4B-/	4E-\	(8bb-\L	.
.	.	8gg\)	.
(2B-/	4G\	(8ee-\	.
.	.	8cc\J)	.
.	.	32b-q/LLL	.
.	.	32ccq/	.
.	.	32ddq/JJJ	.
.	2F\	2cc\	.
4A/)	.	.	.
=8	=8	=8	=8
.	.	16b-q/LL	.
.	.	16ccq/JJ	.
*	*	*^	*
4B-/	4BB-\	4r	4b-\	.
2.r	2.r	12r	4b-\	p
.	.	(12dd/L	.	.
.	.	12ff/J)	.	.
.	.	12r	4cc\	.
.	.	(12ee-/L	.	.
.	.	12gg/J)	.	.
.	.	12r	4a\	.
.	.	(12cc/L	.	.
.	.	12ee-/J)	.	.
*v	*v	*	*	*
=9	=9	=9	=9
1r	12r	4b-\	.
.	(12dd/L	.	.
.	12ff/J)	.	.
.	12r	4d\	.
.	(12b-/L	.	.
.	12cc/J)	.	.
.	12r	4e-\	.
.	(12cc/L	.	.
.	12ee-/J)	.	.
.	12r	4en\	.
.	(12g/L	.	.
.	12b-/J)	.	.
=10	=10	=10	=10
4r	12r	4f\	.
.	(12a/L	.	.
.	12cc/J)	.	.
4BB-\ 4B-\	2.r	(12dd\L	f
.	.	12ee-\	.
.	.	12ff\J	.
4C\ 4c\	.	12ee-\L	.
.	.	12ff\	.
.	.	12gg\J	.
4AA\ 4A\	.	12cc\L	.
.	.	12dd\	.
.	.	12ee-\J	.
*	*v	*v	*
=11	=11	=11
4BB-\ 4B-\	12dd\L	.
.	12ee-\	.
.	12ff\J)	.
4E-\	12gg'\L	.
.	12aa'\	.
.	12bb-'\J	.
4F\	12aa'\L	.
.	12gg'\	.
.	12ff'\J	.
4FF/	12ee-'\L	.
.	12dd'\	.
.	12cc'\J	.
=12	=12	=12
*	*^	*
4BB-/	4r	4b-\	.
(4DD/ 4D/	[2.b-/	(4f#\	f
4EE-/ 4E-/	.	4g\	.
4DD/) 4D/	.	4f#\)	.
=13	=13	=13	=13
*^	*	*	*
4EE-'/ 4E-'/	2r	4b-/]	4g\	.
4r	.	2.r	(12ee-\L	p
.	.	.	12ff\	.
.	.	.	12gg\J	.
(4d/	2F\	.	12ff\L	.
.	.	.	12ee-\	.
.	.	.	12dd\J	.
4e-/)	.	.	12cc\L	.
.	.	.	12b-\	.
.	.	.	12a\J	.
=14	=14	=14	=14	=14
4d/	4B-\	4r	4b-\)	.
(4DD/ 4D/	2.r	[2.b-/	(4f#\	f
4EE-/ 4E-/	.	.	4g\	.
4DD/) 4D/	.	.	4f#\)	.
=15	=15	=15	=15	=15
4EE-'/ 4E-'/	2r	4b-/]	4g\	.
4r	.	2.r	(12ee-\L	p
.	.	.	12ff\	.
.	.	.	12gg\J	.
(4d/	2F\	.	12ff\L	.
.	.	.	12ee-\	.
.	.	.	12dd\J	.
4e-/)	.	.	12cc\L	.
.	.	.	12b-\	.
.	.	.	12a\J	.
*v	*v	*	*	*
*	*v	*v	*
=16	=16	=16
4B-\ 4d\	4b-\)	.
4F\ 4e-\	(12ee-\L	.
.	12cc\	.
.	12a\J	.
4B-\ 4d\	4b-\)	.
4F\ 4e-\	(12ee-\L	.
.	12cc\	.
.	12a\J	.
=17	=17	=17
4B-\ 4d\	4b-\)	.
.	32eenq/	.
4r	4ff\	pp
.	32aaq/	.
2r	4bb-\	.
.	4r	.
*clefG2	*	*
=18	=18	=18
(12B-/L	2.b-\	f
12d/	.	.
12f/J	.	.
12B-/L	.	.
12d/	.	.
12f/J	.	.
12B-/L	.	.
12d/	.	.
12f/J	.	.
.	16aq/LL	.
.	16b-q/JJ	.
12B-/L	4dd\	.
12d/	.	.
12f/J	.	.
=19	=19	=19
12B-/L	4ff\	.
12d/	.	.
12f/J	.	.
.	32aaq/	.
12B-/L	4bb-\	p
12d/	.	.
12f/J	.	.
.	32ccc#q/	.
12B-/L	4ddd\	.
12d/	.	.
12f/J	.	.
12B-/L	4r	.
12d/	.	.
12f/J	.	.
=20	=20	=20
12A/L	2.a/	f
12c/	.	.
12f/J	.	.
12A/L	.	.
12c/	.	.
12f/J	.	.
12A/L	.	.
12c/	.	.
12f/J	.	.
.	16gq/LL	.
.	16aq/JJ	.
12A/L	4cc\	.
12c/	.	.
12f/J	.	.
=21	=21	=21
12A/L	4ff\	.
12c/	.	.
12f/J	.	.
.	32gg#q/	.
12A/L	4aa\	p
12c/	.	.
12f/J	.	.
.	32bbnq/	.
12A/L	4ccc\	.
12c/	.	.
12f/J	.	.
12A/L	4r	.
12c/	.	.
12f/J)	.	.
=22	=22	=22
4g/	12r	f
.	(12ccc\L	.
.	12bb-\J)	.
4en/	12r	.
.	(12aa\L	.
.	12gg\J)	.
4f/	12r	.
.	(12bb-\L	.
.	12aa\J)	.
4a/	12r	.
.	(12gg\L	.
.	12ff\J)	.
=23	=23	=23
4b-\	12r	.
.	(12aa\L	.
.	12gg\J)	.
4g/	12r	.
.	(12ff\L	.
.	12een\J)	.
4a/	12r	.
.	(12gg\L	.
.	12ff\J)	.
*clefF4	*	*
4F\	12r	p
.	(12a\L	.
.	12cc\J)	.
=24	=24	=24
4G\	12r	.
.	(12cc\L	.
.	12b-\J)	.
4En\	12r	.
.	(12a/L	.
.	12g/J)	.
4F\	12r	.
.	(12b-/L	.
.	12a/J)	.
4A\	12r	.
.	(12g/L	.
.	12f/J)	.
=25	=25	=25
4B-\	12r	.
.	(12a/L	.
.	12g/J)	.
4G\	12r	.
.	(12f/L	.
.	12en/J)	.
4A\	12r	f
.	(12f/L	.
.	12a/J	.
4r	12cc\L	.
.	12ff\	.
.	12aa\J)	.
=26	=26	=26
2BB-\ 2B-\	12dd'\L	.
.	(12gg\	.
.	12ff#\J	.
.	12gg\L	.
.	12bb-\	.
.	12aa\J	.
4r	12bb-\L	.
.	12ddd\	.
.	12ccc#\J	.
*clefG2	*	*
4B-/ 4g/	12ddd\L	.
.	12bb-\	.
.	12gg\J	.
=27	=27	=27
*^	*	*
2c\	(4a/	4ffn\	.
.	4b-/)	4een\)	.
*v	*v	*	*
*clefF4	*	*
*^	*	*
12c\L	2r	2r	.
12d\	.	.	.
12c\J	.	.	.
12B-\L	.	.	.
12A\	.	.	.
12G\J	.	.	.
*v	*v	*	*
=28	=28	=28
12F\L	(4cc\	.
12A\	.	.
12c\J	.	.
12F\L	8.ff\L	.
12A\	.	.
12c\J	.	.
.	16a\Jk	.
.	16ccq/	.
12En\L	4b-\	.
12G\	.	.
12c\J	.	.
12E\L	4g/)	.
12G\	.	.
12c\J	.	.
=29	=29	=29
.	32ggq/LLL	.
.	(32aaq/JJJ	.
12G\L	4bb-\	.
12B-\	.	.
12c\J	.	.
12G\L	16aa\LL	.
.	16gg\	.
12B-\	.	.
.	16ff\	.
12c\J	.	.
.	16een\JJ	.
12A\L	4ff\	.
12c\	.	.
12f\J	.	.
12c\L	8aa\)	.
12A\	.	.
.	8r	.
12c\J	.	.
=30	=30	=30
12F\L	(4cc\	.
12A\	.	.
12c\J	.	.
12F\L	8.ff\L	.
12A\	.	.
12c\J	.	.
.	16a\Jk	.
.	32ccq/	.
12En\L	4b-\	.
12G\	.	.
12c\J	.	.
12E\L	4g/)	.
12G\	.	.
12c\J	.	.
=31	=31	=31
.	32ggq/LLL	.
.	(32aaq/JJJ	.
12G\L	4bb-\	.
12B-\	.	.
12c\J	.	.
12G\L	16aa\LL	.
.	16gg\	.
12B-\	.	.
.	16ff\	.
12c\J	.	.
.	16een\JJ	.
12A\L	4ff\	.
12c\	.	.
12f\J	.	.
12c\L	8aa\)	.
12A\	.	.
.	8r	.
12F\J	.	.
=32	=32	=32
4A\	12r	.
.	(12ccc\L	p
.	12bb-\J	.
4r	12aa\L)	.
.	(12aa\	.
.	12gg\J	.
2r	12ff\L)	.
.	(12ff\	.
.	12ee-\J	.
.	12dd\L)	.
.	(12dd\	.
.	12cc#\J	.
=33	=33	=33
4B-\	8dd\L)	<
.	8een'\	.
4r	8ff'\	.
.	8ff#'\J	.
4r	8gg'\L	.
.	8aa'\	.
*clefG2	*	*
4b-\	8bb-'\	.
.	8ddd'\J	.
=34	=34	=34
4a/	(8ddd\L	f
.	8ccc\)	.
4dd\	(8bb-\	.
.	8aa\J)	.
4b-\	(8aa\L	.
.	8gg\)	.
4cc\	(8ffn\	.
.	8een\J)	.
=35	=35	=35
4a/	12r	.
.	(12ccc\L	p
.	12bb-\J	.
4r	12aa\L	.
.	(12aa\)	.
.	12gg\J	.
2r	12ff\L	.
.	(12ff\)	.
.	12ee-\J	.
.	12dd\L)	.
.	(12dd\	.
.	12cc#\J	.
=36	=36	=36
4b-\	8dd\L)	.
.	8een'\	.
4r	8ff'\	.
.	8ff#'\J	.
8r	8gg'\L	.
8f#'/L	8aa'\	.
8g'/	8bb-'\	.
8a'/J	8ccc'\J	<
=37	=37	=37
8b-'\L	8ddd'\L	.
8cc'\	8eeen'\	.
8dd'\	8fff'\	.
8cc#'\J	8eee'\J	.
8dd'\L	8fff'\L	.
8cc#'\	8eee'\	.
8dd'\	8fff'\	.
8cc#'\J	8eee'\J	.
=38	=38	=38
*^	*	*
4r	4dd\	(8fff\L	f
.	.	8ddd\	.
(2f/	4B-\	8bb-\	.
.	.	8gg\J)	.
.	.	(32ffq/LLL	.
.	.	32ggq/	.
.	.	32aaq/JJJ	.
.	2c\	2gg\)	.
4en/)	.	.	.
*v	*v	*	*
=39	=39	=39
.	16ffq/LL	.
.	16ggq/JJ	.
8f/L	4ff\	.
(8cc/	.	.
8a/	2.ee-\	.
8f/J)	.	.
(8a/L	.	.
8f/)	.	.
(8a/	.	.
8f/J)	.	.
=40	=40	=40
*^	*	*
.	.	16ddq/LL	.
.	.	16ee-q/JJ	.
4r	8b-\L	4dd\	.
.	(8f\	.	.
2.b-/	8g\	2.een\	.
.	(8f\J)	.	.
.	8g\L	.	.
.	8f\	.	.
.	8g\	.	.
.	8f\J)	.	.
=41	=41	=41	=41
.	.	16ddq/LL	.
.	.	16eeq/JJ	.
4r	(8a\L	4ff\	.
.	(8f\)	.	.
2.cc/	8a\	2.ee-\	.
.	(8f\J)	.	.
.	8a\L	.	.
.	8f\	.	.
.	8a\	.	.
.	8f\J)	.	.
=42	=42	=42	=42
.	.	16ddq/LL	.
.	.	16ee-q/JJ	.
4r	(8b-\L	4dd\	.
.	(8f\)	.	.
2.b-/	8g\	2.een\	.
.	(8f\J)	.	.
.	8g\L	.	.
.	8f\	.	.
.	8g\	.	.
.	8f\J)	.	.
*v	*v	*	*
=43	=43	=43
*M16/4	*M16/4	*M16/4
2a;/	[2ff;\	.
2r	8ff\L]	.
.	(8bb-\	.
.	8gg\	.
.	8een\J	.
2f;\	[2ff\)	.
2r	8ff\L]	.
.	(8bb-\	.
.	8gg\	.
.	8een\J	.
2r;	8ff\L	.
.	(8gg\)	.
.	8ee-\	.
.	8cc#\J	.
2r	8dd\L)	.
.	(8ee-\	.
.	8ccn\	.
.	8a\J	.
2r	8b-\L	.
.	8cc\	f
.	8dd\	.
.	8ee-\J)	.
4r	(4ff\	p
4Bn/ 4g/	4gg\)	.
=44	=44	=44
*met(C|)	*met(C|)	*met(C|)
*M2/2	*M2/2	*M2/2
2c/ 2g/	(8ff\L	.
.	8ee-\	.
.	8dd\	.
.	8cc\J)	.
4r	(4ee-\	.
4A/ 4f/	4ff\)	.
=45	=45	=45
*^	*	*
2B-/ 2f/	2.r	(8ee-\L	.
.	.	8dd\	.
.	.	8cc\	.
.	.	8b-\J)	.
4r	.	(4ff\	.
4b-/	4d\	4bb-\)	.
=46	=46	=46	=46
2b-/	4e-\	(8aa\L	.
.	.	8gg\)	.
.	4d\	(8gg\	.
.	.	8ff\J)	.
4a/	4c\	(8ff\L	.
.	.	8ee-\)	.
4b-/	4B-\	(8ee-\	.
.	.	8dd\J)	.
=47	=47	=47	=47
(4b-/	2f\	(4dd\	.
4a/)	.	4cc\)	.
2r	4r	(8ff\L	f
.	.	8een\)	.
*clefF4	*clefF4	*	*
.	4BBn\ 4Bn\	(8ff\	.
.	.	8gg\J)	.
*v	*v	*	*
=48	=48	=48
4C\ 4c\	(8ff\L	.
.	8ee-\	.
4E-\ 4e-\	8dd\	.
.	8cc\J)	.
4r	(8ee-\L	.
.	8dd\)	.
4AA\ 4A\	(8ee-\	.
.	8ff\J)	.
=49	=49	=49
*^	*	*
2.r	4BB-\ 4B-\	(8ee-\L	.
.	.	8dd\	.
.	4D\ 4d\	8cc\	.
.	.	8b-\J)	.
.	4r	(8b-\L	.
.	.	8dd\)	.
4B-/	4D\	(8ff\	.
.	.	8bb-\J)	.
=50	=50	=50	=50
4B-/	4E-\	(8bb-\L	.
.	.	8gg\)	.
(2B-/	4G\	(8ee-\	.
.	.	8cc\J	.
.	.	(32b-q/LLL)	.
.	.	32ccq/	.
.	.	32ddq/JJJ	.
.	2F\	2cc\)	.
4A/)	.	.	.
=51	=51	=51	=51
.	.	16b-q/LL	.
.	.	16ccq/JJ	.
4B-/	4BB-\	(4b-\	.
4r	4r	4cc\	.
2r	2r	4cc#\	.
.	.	4dd\)	.
*v	*v	*	*
*clefG2	*	*
=52!|:	=52!|:	=52!|:
*>B	*>B	*>B
8r	4dd\	p
8G'/L	.	.
8B-'/	4r	.
8d'/J	.	.
4g/	8r	.
.	8ff#'\L	.
4r	8gg'\	.
.	(8bb-\J	.
=53	=53	=53
8r	4cc\)	.
8A'/L	.	.
8c'/	4r	.
8e-'/J	.	.
4f#/	8r	.
.	8bn'\L	.
4r	8cc'\	.
.	(8ee-\J	.
*clefF4	*	*
=54	=54	=54
8r	4f#/)	.
8C'\L	.	.
8E-'\	4r	.
8A'\J	.	.
4c\	8r	.
.	(8ee-\L	.
4r	8dd\	.
.	8f#\J)	.
=55	=55	=55
(4B-\	(8a/L	.
.	8g/)	.
4F#'\	(8b-/	.
.	8a/J)	.
4G'\	(8cc\L	.
.	8b-\)	.
4A\)	(8dd\	.
.	8cc\J)	.
*clefG2	*	*
=56	=56	=56
(8B-/L	(8ee-\L	.
8g/	8dd\J)	.
8d/	(2dd\	.
8g/J)	.	.
8B-'/L	.	.
8g'/	.	.
8Bn'/	4gg\)	.
8g'/J	.	.
=57	=57	=57
(8c/L	(8ff\L	.
8g/	8ee-\J)	.
8e-/	(2ee-\	.
8g/J)	.	.
8c'/L	.	.
8g'/	.	.
8d'/	4dd\)	.
8g'/J	.	.
=58	=58	=58
(8e-/L	(8dd\L	.
8g/	8cc#\J)	.
8b-/	2cc#\	.
8g/J	.	.
8e-/L	.	.
8g/	.	.
8b-/	4ccc#\	.
8g/J)	.	.
=59	=59	=59
[2d/ 2g/ (2b-/	(4.ccc#\	.
.	8ddd\)	.
4d/] 4f#/ 4a/)	4dd\	.
4r	4r	.
=60:|!|:	=60:|!|:	=60:|!|:
*>C	*>C	*>C
*clefF4	*	*
2DD/ 2D/	8r	.
.	8dd'\ 8ddd'\L	f
.	8cc#\ (8ccc#\	.
.	8dd\ 8ddd\J)	.
2FF#/ 2F#/	8r	.
.	8ccn'\ 8cccn'\L	.
.	8bn\ (8bbn\	.
.	8cc\ 8ccc\J)	.
=61	=61	=61
8r	2b-\ 2bb-\	.
8GG'/ 8G'/L	.	.
(8FF#/ 8F#/	.	.
8GG/) 8G/J	.	.
8r	2f#\ 2ff#\	.
8C'\ 8c'\L	.	.
8BBn\ (8Bn\	.	.
8C\ 8c\J)	.	.
=62	=62	=62
4BB-\ 4B-\	8r	.
.	(8gg\L	p
4r	8ff#\	.
.	8ffn\J	.
4r	8een\L	.
.	8ee-\	.
*clefG2	*	*
8r	8dd\	.
8e-/ 8g/	8cc#\J)	.
=63	=63	=63
*	*^	*
[2d/ (2g/	(2cc#/	2b-\	.
4d/] 4f#/)	4dd/)	4a\)	.
4r	4r	4r	.
*	*v	*v	*
=64	=64	=64
(8B-/L	(8dd\L	.
8g/	8gg\J)	.
8d/	(2gg\	.
8g/J)	.	.
8B-'/L	.	.
8g'/	.	.
8Bn'/	4ffn\)	.
8g'/J	.	.
=65	=65	=65
4c/	(8ff\L	.
.	8ee-\J)	.
*clefF4	*	*
4C\ 4E-\ 4F#\ 4A\	4f#\ 4a\ 4cc\ 4ee-\	f
4r;	4r;	.
4r	8r	.
.	8cc'\ 8ee-'\	p
=66	=66	=66
4r	8cc\ (8ee-\L	.
.	8b-\ 8dd\J)	.
4d\	8r	.
.	8a'\ 8cc'\	.
4r	(8a/ 8cc/L	.
.	8g/) 8b-/J	.
4D\ 4c\	8r	.
.	8f#'/ 8a'/	.
=67	=67	=67
2G\ (2c\	(2f#/ 2a/	>
4G\ 4B-\)	4g/)	.
4r	4r	.
=68:|!	=68:|!	=68:|!
*>D	*>D	*>D
(2FFn/ (2Fn/	(2d/ 2a-/ (2bn/	f
4EEn/) 4En/)	4en/) 4g/ 4cc/)	.
4r	4r	.
*clefG2	*	*
=69	=69	=69
(2e-/ (2g/	(2cc#\	p
4d/) 4f#/)	4dd\)	.
4r	4r	.
*clefF4	*	*
=70	=70	=70
4C\ 4E-\ 4Fn\ 4A\	4fn\ 4a\ 4ccn\ 4ee-\	f
4r	4r	.
2r	2r	.
*clefG2	*	*
=71	=71	=71
2r	2r	.
4r	(4ff\	p
4Bn/ 4g/	4gg\)	.
=72	=72	=72
2c/ 2g/	(8ff\L	.
.	8ee-\	.
.	8dd\	.
.	8cc\J)	.
4r	(4ee-\	.
4A/ 4f/	4ff\)	.
=73	=73	=73
*^	*	*
2B-/ 2f/	2.r	(8ee-\L	.
.	.	8dd\	.
.	.	8cc\	.
.	.	8b-\J)	.
4r	.	(4ff\	.
4b-/	4d\	4bb-\)	.
=74	=74	=74	=74
2b-/	4e-\	(8aa\L	.
.	.	8gg\	.
.	4d\	(8gg\)	.
.	.	8ff\J)	.
4a/	4c\	(8ff\L	.
.	.	8ee-\)	.
4b-/	4B-\	(8ee-\	.
.	.	8dd\J)	.
=75	=75	=75	=75
(4b-/	2f\	(4dd\	.
4a/)	.	4cc\)	.
4r	2r	(8ff\L	f
.	.	8een\)	.
*clefF4	*clefF4	*	*
4BBn\ 4Bn\	.	(8ff\	.
.	.	8gg\J)	.
*v	*v	*	*
=76	=76	=76
4C\ 4c\	(8ff\L	.
.	8ee-\	.
4E-\ 4e-\	8dd\	.
.	8cc\J)	.
4r	(8ee-\L	.
.	8dd\	.
4AA\ 4A\	(8ee-\)	.
.	8ff\J)	.
=77	=77	=77
*^	*	*
2.r	4BB-\ 4B-\	(8ee-\L	.
.	.	8dd\	.
.	4D\ 4d\	8cc\	.
.	.	8b-\J)	.
.	4r	(8b-\L	.
.	.	8dd\)	.
4B-/	4D\	(8ff\	.
.	.	8bb-\J)	.
=78	=78	=78	=78
4B-/	4E-\	(8bb-\L	.
.	.	8gg\)	.
(2B-/	4G\	(8ee-\	.
.	.	8cc\J)	.
.	.	32b-q/LLL	.
.	.	32ccq/	.
.	.	32ddq/JJJ	.
.	2F\	2cc\	.
4A/)	.	.	.
=79	=79	=79	=79
.	.	16b-q/LL	.
.	.	16ccq/JJ	.
*	*	*^	*
4B-/	4BB-\	4r	4b-\	.
2.r	2.r	(12dd/L	4b-\	p
.	.	12ff/J)	.	.
.	.	12r	.	.
.	.	12r	4cc\	.
.	.	(12ee-/L	.	.
.	.	12gg/J	.	.
.	.	12r	4a\)	.
.	.	(12cc/L	.	.
.	.	12ee-/J)	.	.
*v	*v	*	*	*
=80	=80	=80	=80
1r	12r	4b-\	.
.	(12dd/L	.	.
.	12ff/J)	.	.
.	12r	4d\	.
.	(12b-/L	.	.
.	12dd/J)	.	.
.	12r	4e-\	.
.	(12cc/L	.	.
.	12ee-/J)	.	.
.	12r	4en\	.
.	(12g/L	.	.
.	12b-/J)	.	.
=81	=81	=81	=81
4r	12r	4f\	.
.	(12a/L	.	.
.	12cc/J)	.	.
4BB-\ 4B-\	2.r	(12dd\L	f
.	.	12ee-\	.
.	.	12ff\J	.
4C\ 4c\	.	12ee-\L	.
.	.	12ff\	.
.	.	12gg\J	.
4AA\ 4A\	.	12cc\L	.
.	.	12dd\	.
.	.	12ee-\J	.
*	*v	*v	*
=82	=82	=82
4BB-\ 4B-\	12dd\L	.
.	12ee-\	.
.	12ff\J)	.
4E-\	12gg'\L	.
.	12aa'\	.
.	12bb-'\J	.
4F\	12aa'\L	.
.	12gg'\	.
.	12ff'\J	.
4FF/	12ee-'\L	.
.	12dd'\	.
.	12cc'\J	.
=83	=83	=83
*	*^	*
4BB-/	4r	4b-\	.
(4DD/ 4D/	[2.b-/	(4f#\	f
4EE-/ 4E-/	.	4g\	.
4DD/) 4D/	.	4f#\)	.
=84	=84	=84	=84
*^	*	*	*
2r	4EE-'/ 4E-'/	4b-/]	4g'\	.
.	4r	2.r	12ee-\L	p
.	.	.	(12ff\	.
.	.	.	12gg\J	.
(4d/	2F\	.	12ff\L	.
.	.	.	12ee-\	.
.	.	.	12dd\J	.
4e-/)	.	.	12cc\L	.
.	.	.	12b-\	.
.	.	.	12a\J	.
=85	=85	=85	=85	=85
4d/	4B-\	4r	4b-\)	.
(4DD/ 4D/	2.r	[2.b-/	(4f#\	f
4EE-/ 4E-/	.	.	4g\	.
4DD/) 4D/	.	.	4f#\)	.
=86	=86	=86	=86	=86
2r	4EE-'/ 4E-'/	4b-/]	4g'\	.
.	4r	2.r	(12ee-\L	p
.	.	.	12ff\	.
.	.	.	12gg\J	.
(4d/	2F\	.	12ff\L	.
.	.	.	12ee-\	.
.	.	.	12dd\J	.
4e-/)	.	.	12cc\L	.
.	.	.	12b-\	.
.	.	.	12a\J	.
*v	*v	*	*	*
*	*v	*v	*
=87	=87	=87
4B-\ 4d\	4b-\)	.
4F\ 4e-\	(12ee-\L	.
.	12cc\	.
.	12a\J	.
4B-\ 4d\	4b-\)	.
4F\ 4e-\	(12ee-\L	.
.	12cc\	.
.	12a\J	.
=88	=88	=88
4B-\ 4d\	4b-\)	.
.	32eenq/	.
4r	4ff\	pp
.	32aaq/	.
4r	4bb-\	.
32Enq/	32enq/	.
4F\	4f/	f
=89	=89	=89
32Gq/	32gq/	.
4A-\	4a-/	.
4r	4r	.
2r	2r	.
*clefG2	*	*
=90	=90	=90
8e-/L	2b-\	p
8g/	.	.
8e-/	.	.
8g/J	.	.
8e-/L	(8ee-\L	.
8g/	8dd\	.
8e-/	8cc\	.
8g/J	8b-\J)	.
=91	=91	=91
*^	*	*
8f/L	4d\	(4.b-\	.
8a-/	.	.	.
8f/	4d\	.	.
8a-/J	.	8cc\)	.
8f/L	4d\	4b-'\	.
8a-/	.	.	.
8f/	4d\	4r	.
8a-/J	.	.	.
*v	*v	*	*
=92	=92	=92
8e-/L	4r	.
8g/	.	.
8e-/	4b-\	p
8g/J	.	.
8e-/L	(8ee-\L	.
8g/	8dd\	.
8e-/	8cc\	.
8g/J	8b-\J)	.
=93	=93	=93
*^	*	*
8f/L	4d\	(4.b-\	.
8a-/	.	.	.
8f/	4d\	.	.
8a-/J	.	8cc\)	.
8f/L	4d\	4b-'\	.
8a-/	.	.	.
8f/	4d\	4r	.
8a-/J	.	.	.
*v	*v	*	*
*clefF4	*	*
=94	=94	=94
8e-\L	4r	.
8f\	.	.
8d\	4gg'\	f
8e-\J	.	.
8c\L	4aa-'\	.
8d\	.	.
8B-\	4bb-'\	.
8c\J	.	.
=95	=95	=95
.	32aa-q/LLL	.
.	32bb-q/JJJ	.
8A-\L	(4.ccc\	.
8c\	.	.
8d\	.	.
8en\J	8bb-\	.
8f\L	4aa-'\)	.
8e-\	.	.
8d\	4r	.
8c\J	.	.
=96	=96	=96
8B-\L	4r	.
8A-\	.	.
8G\	4b-'\	.
8E-\J	.	.
8A-\L	4cc'\	.
8F\	.	.
8B-\	4dd'\	.
8A-\J	.	.
=97	=97	=97
8G\L	(4.ee-\	.
8A-\	.	.
8G\	.	.
8F\J	8ff\	.
8E-\L	4gg'\)	.
8G\	.	.
8B-\	4r	.
8d\J	.	.
=98	=98	=98
8e-\	4r	.
*clefG2	*	*
8ee-'\L	.	.
(8dd\	4gg'\	p
8ee-\J	.	.
8cc\L	4aa-'\	.
8dd\	.	.
8b-\	4bb-'\	.
8cc\J	.	.
=99	=99	=99
.	16aaq/LL	.
.	16bb-q/JJ	.
8a-'\L)	(4.ccc\	.
(8cc\	.	.
8dd\	.	.
8een\J	8bb-\	.
8ff\L	4aa-'\)	.
8ee-\	.	.
8dd\	4r	.
8cc\J	.	.
=100	=100	=100
8b-/L	4r	.
8a-/	.	.
8g/	4b-'\	f
8e-/J	.	.
8a-'/L)	4cc'\	.
8f'/	.	.
8b-'/	4dd'\	.
8B-'/J	.	.
=101	=101	=101
4e-/	4ee-\	.
4r	4r	.
.	32ff#q/	.
2r	4gg\	p
.	32ff#q/	.
.	4gg\	.
=102	=102	=102
(12d/L	(12bn\L	f
12f/	12dd\	.
12a-/J	12ffn\J	.
12bn/L	12aa-\L	.
12a-/	12ff\	.
12f/J	12dd\J	.
12d/L	12b\L	.
12f/	12dd\	.
12a-/J	12ff\J	.
12b/L	12aa-\L	.
12a-/	12ff\	.
12f/J)	12dd\J	.
=103	=103	=103
4e-/	4cc\)	.
4r	4r	.
.	32eenq/	.
2r	4ff\	p
.	32eeq/	.
.	4ff\	.
=104	=104	=104
(12c/L	(12an\L	f
12e-/	12cc\	.
12g-/J	12ee-\J	.
12an/L	12gg-\L	.
12g-/	12ee-\	.
12e-/J	12cc\J	.
12c/L	12a\L	.
12e-/	12cc\	.
12g-/J	12ee-\J	.
12a/L	12gg-\L	.
12g-/	12ee-\	.
12e-/J	12cc\J	.
=105	=105	=105
*^	*	*
4d/)	2.r	4b-\)	.
4r	.	4r	.
4r	.	12bb-'\L	.
.	.	12aan'\	.
.	.	12ggn'\J	.
4b-/	4d\	12ff'\L	.
.	.	12ee-'\	.
.	.	12dd'\J	.
=106	=106	=106	=106
1b-	(4e-\	(12bn\L	.
.	.	12cc\	.
.	.	12ee-\J	.
.	4g\	12b\L	.
.	.	12cc\	.
.	.	12ee-\J	.
.	4f\	12cc#\L	.
.	.	12dd\	.
.	.	12ff\J	.
.	4a-\)	12cc#\L	.
.	.	12dd\	.
.	.	12ff\J	.
=107	=107	=107	=107
2b-/	(4g\	12dd\L	.
.	.	12ee-\	.
.	.	12gg\J	.
.	4e-\)	12dd\L	.
.	.	12ee-\	.
.	.	12gg\J	.
2b-/	(4d\	12een\L	.
.	.	12ff\	.
.	.	12aa-\J	.
.	4B-\)	12ee\L	.
.	.	12ff\	.
.	.	12aa-\J	.
=108	=108	=108	=108
4b-/	4e-\	8ff#\L	.
.	.	8gg\	.
4r	2r	8dd\	.
.	.	8ee-\J	.
4r	.	8bn\L	.
.	.	8cc\)	.
*v	*v	*	*
*clefF4	*	*
*^	*	*
(8c/L	4E-\	(8ee-\	.
8e-/J)	.	8cc\J)	.
=109	=109	=109	=109
(4d/	2F\	(4b-\	.
4c/)	.	4a/)	.
2r	2r	(12f/L	.
.	.	12a/	.
.	.	12cc/J	.
.	.	12ff\L	.
.	.	12aa\	.
.	.	12ccc\J	.
*v	*v	*	*
=110	=110	=110
(12GG/L	4bb-\)	.
12BB-/	.	.
12En/J	.	.
12G\L	4r	.
12B-\	.	.
12en\J	.	.
4g\)	(12bb-\L	.
.	12gg\	.
.	12een\J	.
4r	12cc\L	.
.	12b-\	.
.	12g\J	.
=111	=111	=111
(12f\L	4a/)	.
12c\	.	.
12A\J	.	.
12F\L	4r	.
12C\	.	.
12AA\J	.	.
4FF/)	(12f/L	.
.	12a/	.
.	12cc/J	.
4r	12ff\L	.
.	12aa\	.
.	12ccc\J	.
=112	=112	=112
(12GG/L	4bb-\)	.
12BB-/	.	.
12En/J	.	.
12G\L	4r	.
12B-\	.	.
12en\J	.	.
4g\)	(12bb-\L	.
.	12gg\	.
.	12een\J	.
4r	12cc\L	.
.	12b-\	.
.	12g\J	.
=113	=113	=113
4F\ 4A\ 4c\	16a\LL	.
.	16cc\	.
.	16b-\	.
.	16a\JJ	.
4r	16b-\LL	.
.	16cc\	.
.	16dd\	.
.	16een\JJ	.
2r	8ff\L)	.
.	8ff'\	.
.	8ff'\	.
.	8ff'\J	.
*clefG2	*	*
=114	=114	=114
*^	*	*
2r	2r	[1ff	.
(4f/	4d\	.	.
4g/)	4Bn\	.	.
=115	=115	=115	=115
(8f/L	4c\	1ff_	.
8e-/	.	.	.
8d/	4r	.	.
8c/J	.	.	.
(4e-/)	4c\	.	.
4f/)	4A\	.	.
=116	=116	=116	=116
(8e-/L	4B-\	1ff_	.
8d/	.	.	.
8c/	4r	.	.
8B-/J	.	.	.
4f/)	4d\	.	.
4b-/	4B-\	.	.
*v	*v	*	*
=117	=117	=117
(8c/L	1ff]	.
8a/	.	.
8B-/	.	.
8g/J	.	.
8A/L	.	.
8f/	.	.
8G/	.	.
8en/J)	.	.
=118	=118	=118
(16f/LL	4ff\	.
16g/	.	.
16a/	.	.
16b-/JJ	.	.
16cc/LL	4r	.
16b-/	.	.
16a/	.	.
16g/JJ)	.	.
8f/L	2r	.
8f'/	.	.
8f'/	.	.
8f'/J	.	.
=119	=119	=119
*	*^	*
[1f	2r	2r	.
.	(4ff/	4dd\	.
.	4gg/)	4bn\	.
=120	=120	=120	=120
1f_	(8ff/L	4cc\	.
.	8ee-/	.	.
.	8dd/	4r	.
.	8cc/J	.	.
.	(4ee-/)	4cc\	.
.	4ff/)	4a\	.
=121	=121	=121	=121
1f_	(8ee-/L	4b-\	.
.	8dd/	.	.
.	8cc/	4r	.
.	8b-/J	.	.
.	(4ff/)	4dd\	.
.	4bb-/)	4b-\	.
*	*v	*v	*
=122	=122	=122
1f]	(8cc\L	.
.	8aa\	.
.	8b-\	.
.	8gg\J	.
.	8a\L	.
.	8ff\	.
.	8g\	.
.	8een\J)	.
=123	=123	=123
12f/L	4a\ 4cc\ 4ff\	.
12g/	.	.
12f/J	.	.
12e-/L	4r	.
12f/	.	.
12e-/J	.	.
12d/L	2r	.
12e-/	.	.
12d/J	.	.
12c/L	.	.
12d/	.	.
12c/J	.	.
=124	=124	=124
12B-/L	(4ff\	.
12d/	.	.
12f/J	.	.
12B-/L	8.bb-\L	.
12d/	.	.
12f/J	.	.
.	16dd\Jk	.
.	32ffq/	.
12A/L	4ee-\	.
12c/	.	.
12f/J	.	.
12A/L	4cc\)	.
12c/	.	.
12f/J	.	.
=125	=125	=125
.	32cccq/LLL	.
.	32dddq/JJJ	.
12c/L	(4eee-\	.
12e-/	.	.
12f/J	.	.
12c/L	16ddd\LL	.
.	16ccc\	.
12e-/	.	.
.	16bb-\	.
12f/J	.	.
.	16aa\JJ	.
12d/L	4bb-\	.
12f/	.	.
12b-/J	.	.
12f/L	8ddd\)	.
12d/	.	.
.	8r	.
12f/J	.	.
*clefF4	*	*
=126	=126	=126
12B-\L	(4ff\	.
12d\	.	.
12f\J	.	.
12B-\L	8.bb-\L	.
12d\	.	.
12f\J	.	.
.	16dd\Jk	.
.	32ffq/	.
12A\L	4ee-\	.
12c\	.	.
12f\J	.	.
12A\L	4cc\)	.
12c\	.	.
12f\J	.	.
=127	=127	=127
.	32ccq/LLL	.
.	32ddq/JJJ	.
12E-\L	(4ee-\	.
12F\	.	.
12A\J	.	.
12E-\L	16dd\LL	.
.	16cc\	.
12F\	.	.
.	16b-\	.
12A\J	.	.
.	16a\JJ	.
12D\L	4b-\	.
12F\	.	.
12B-\J	.	.
12F\L	8dd\)	.
12D\	.	.
.	8r	.
12BB-\J	.	.
=128	=128	=128
4D\	12r	.
.	(12ff\L	p
.	12ee-\J	.
4r	(12dd\L	.
.	12dd\)	.
.	12cc\J	.
2r	12b-/L)	.
.	(12b-/	.
.	12a-/J	.
.	12g/L)	.
.	(12g/	.
.	12f#/J	.
=129	=129	=129
4E-\	8g/L)	.
.	8an'/	<
4r	8b-'/	.
.	8bn'/J	.
4r	8cc'\L	.
.	8dd'\	.
*clefG2	*	*
4e-/	8ee-'\	.
.	8gg'\J	.
=130	=130	=130
4d/	(8gg\L	f
.	8ff\)	.
4g/	(8ee-\	.
.	8dd\J)	.
4e-/	(8dd\L	.
.	8cc\)	.
4f/	(8b-\	.
.	8a\J)	.
=131	=131	=131
4d/	12r	.
.	(12ff\L	p
.	12ee-\J	.
4r	12dd\L)	.
.	(12dd\	.
.	12cc\J	.
2r	12b-/L)	.
.	(12a/	.
.	12a-/J	.
.	12g/L)	.
.	(12g/	.
.	12f#/J	.
=132	=132	=132
4e-/	8g/L)	.
.	8an'/	.
4r	8b-'/	.
.	8bn'/J	.
8r	8cc'\L	.
8Bn'/L	8dd'\	.
8c'/	8ee-'\	.
8d'/J	8ff'\J	.
=133	=133	=133
8e-'/L	8gg'\L	.
8f'/	8aa'\	.
8g'/	8bb-'\	.
8f#'/J	8aa'\J	.
8g'/L	8bb-'\L	.
8f#'/	8aa'\	.
8g'/	8bb-'\	.
8f#'/J	8aa'\J	.
=134	=134	=134
8g'/L	8bb-'\L	<
8a'/	8ccc'\	.
8b-'/	8ddd'\	.
8a'/J	8ccc#'\J	.
8b-'/L	8ddd'\L	.
8a'/	8ccc#'\	.
8b-'/	8ddd'\	.
8a'/J	8ccc#'\J	.
=135	=135	=135
*^	*	*
4b-/	4r	(8ddd\L	f
.	.	8bb-\	.
2b-/	4d\	8ff\	.
.	.	8dd\J	.
.	.	32b-q/LLL)	.
.	.	32ccq/	.
.	.	32ddq/JJJ	.
.	4e-\	2cc\	.
4a/	4f\	.	.
*v	*v	*	*
=136	=136	=136
.	16b-q/LL	.
.	16ccq/JJ	.
8b-/L	4b-\	.
(8f/	.	.
8d/	2.aa-\	.
(8B-/J)	.	.
8d/L	.	.
(8B-/)	.	.
8d/	.	.
8B-/J)	.	.
=137	=137	=137
*^	*	*
.	.	16ggq/LL	.
.	.	16aa-q/JJ	.
4r	(8e-\L	4gg\	.
.	(8B-\)	.	.
2.e-/	8c\	2.aan\	.
.	(8B-\J)	.	.
.	8c\L	.	.
.	8B-\	.	.
.	8c\	.	.
.	(8B-\J)	.	.
=138	=138	=138	=138
.	.	16ggq/LL	.
.	.	16aaq/JJ	.
4r	8d\L	4bb-\	.
.	(8B-\)	.	.
2.f/	8d\	2.a-/	.
.	(8B-\J)	.	.
.	8d\L	.	.
.	8B-\	.	.
.	8d\	.	.
.	(8B-\J)	.	.
=139	=139	=139	=139
.	.	16gq/LL	.
.	.	16a-q/JJ	.
4r	8e-\L	4g/	.
.	(8B-\)	.	.
2.e-/	8c\	2.an/	.
.	(8B-\J)	.	.
.	8c\L	.	.
.	8B-\	.	.
.	8c\	.	.
.	8B-\J)	.	.
*v	*v	*	*
=140	=140	=140
.	16gq/LL	.
.	16aq/JJ	.
4d/	8r	.
.	8b-'\L	p
4r	(8b-\	.
.	8bn\J)	f
4A/ 4f/	8r	.
.	8b'\L	.
4r	(8b\	.
.	8cc\J)	p
=141	=141	=141
4B-/ 4f/	8r	.
.	8cc#'\L	.
4r	(8cc#\	.
.	8dd\J)	f
4c/ 4a/	8r	.
.	8dd'\L	.
4r	(8dd\	.
.	8ee-\J)	.
=142	=142	=142
4d/ 4b-/	8r	.
.	(8een'\L	p
4r	8ee\	.
.	8ff\J	.
4r	(4ff\)	.
4Bn/ 4g/	4gg\)	.
=143	=143	=143
2c/ 2g/	(8ff\L	.
.	8ee-\	.
.	8dd\	.
.	8cc\J)	.
4r	(4ee-\	.
4A/ 4f/	4ff\)	.
=144	=144	=144
*^	*	*
2B-/ 2f/	2.r	(8ee-\L	.
.	.	8dd\	.
.	.	8cc\	.
.	.	8b-\J)	.
4r	.	(4ff\	.
4b-/	4d\	4bb-\)	.
=145	=145	=145	=145
2b-/	4e-\	(8aa\L	.
.	.	8gg\)	.
.	4d\	(8gg\	.
.	.	8ff\J	.
4a/	4c\	(8ff\L)	.
.	.	8ee-\)	.
4b-/	4B-\	(8ee-\	.
.	.	8dd\J)	.
=146	=146	=146	=146
(4b-/	2f\	(4dd\	.
4a/)	.	4cc\)	.
2r	4r	(8ff\L	f
.	.	8een\)	.
*clefF4	*clefF4	*	*
.	4BBn\ 4Bn\	(8ff\	.
.	.	8gg\J)	.
*v	*v	*	*
=147	=147	=147
4C\ 4c\	(8ff\L	.
.	8ee-\	.
4E-\ 4e-\	8dd\	.
.	8cc\J)	.
4r	(8ee-\L	.
.	(8dd\	.
4AA\ 4A\	8ee-\)	.
.	8ff\J)	.
=148	=148	=148
*^	*	*
4BB-\ 4B-\	2.r	(8ee-\L	.
.	.	8dd\	.
4D\ 4d\	.	8cc\	.
.	.	8b-\J	.
4r	.	(8b-\L)	.
.	.	8dd\)	.
4D\	4B-/	(8ff\	.
.	.	8bb-\J)	.
=149	=149	=149	=149
4B-/	4E-\	(8bb-\L	.
.	.	8gg\)	.
(2B-/	4G\	(8ee-\	.
.	.	8cc\J)	.
.	.	32b-q/LLL	.
.	.	32ccq/	.
.	.	32ddq/JJJ	.
.	2F\	2cc\	.
4A/)	.	.	.
=150	=150	=150	=150
.	.	16b-q/LL	.
.	.	16ccq/JJ	.
*	*	*^	*
4B-/	4BB-\	4r	4b-\	.
2.r	2.r	12r	4b-\	p
.	.	(12dd/L	.	.
.	.	12ff/J)	.	.
.	.	12r	4cc\	.
.	.	(12ee-/L	.	.
.	.	12gg/J)	.	.
.	.	12r	4a\	.
.	.	(12cc/L	.	.
.	.	12ee-/J)	.	.
*v	*v	*	*	*
=151	=151	=151	=151
1r	12r	4b-\	.
.	(12dd/L	.	.
.	12ff/J)	.	.
.	12r	4d\	.
.	(12b-/L	.	.
.	12dd/J)	.	.
.	12r	4e-\	.
.	(12cc/L	.	.
.	12ee-/J)	.	.
.	12r	4en\	.
.	(12g/L	.	.
.	12b-/J)	.	.
=152	=152	=152	=152
4r	12r	4f\	.
.	(12a/L	.	.
.	12cc/J)	.	.
4BB-\ 4B-\	2.r	(12dd\L	f
.	.	12ee-\	.
.	.	12ff\J	.
4C\ 4c\	.	12ee-\L	.
.	.	12ff\	.
.	.	12gg\J	.
4AA\ 4A\	.	12cc\L	.
.	.	12dd\	.
.	.	12ee-\J	.
*	*v	*v	*
=153	=153	=153
4BB-\ 4B-\	12dd\L	.
.	12ee-\	.
.	12ff\J)	.
4E-\	12gg'\L	.
.	12aa'\	.
.	12bb-'\J	.
4F\	12aa'\L	.
.	12gg'\	.
.	12ff'\J	.
4FF/	12ee-'\L	.
.	12dd'\	.
.	12cc'\J	.
=154	=154	=154
*	*^	*
4BB-/	4r	4b-\	.
(4DD/ 4D/	[2.b-/	(4f#\	f
4EE-/ 4E-/	.	4g\	.
4DD/) 4D/	.	4f#\)	.
=155	=155	=155	=155
*^	*	*	*
4EE-'/ 4E-'/	2r	4b-/]	4g\	.
4r	.	2.r	(12ee-\L	p
.	.	.	12ff\	.
.	.	.	12gg\J	.
(4d/	2F\	.	12ff\L	.
.	.	.	12ee-\	.
.	.	.	12dd\J	.
4e-/)	.	.	12cc\L	.
.	.	.	12b-\	.
.	.	.	12a\J	.
=156	=156	=156	=156	=156
4d/	4B-\	4r	4b-\)	.
(4DD/ 4D/	2.r	[2.b-/	(4f#\	f
4EE-/ 4E-/	.	.	4g\	.
4DD/) 4D/	.	.	4f#\)	.
=157	=157	=157	=157	=157
4EE-'/ 4E-'/	2r	4b-/]	4g'\	.
4r	.	2.r	(12ee-\L	p
.	.	.	12ff\	.
.	.	.	12gg\J	.
(4d/	2F\	.	12ff\L	.
.	.	.	12ee-\	.
.	.	.	12dd\J	.
4e-/)	.	.	12cc\L	.
.	.	.	12b-\	.
.	.	.	12a\J	.
*v	*v	*	*	*
*	*v	*v	*
=158	=158	=158
4B-\ 4d\	4b-\)	.
4F\ 4e-\	(12ee-\L	.
.	12cc\	.
.	12a\J	.
4B-\ 4d\	4b-\)	.
4F\ 4e-\	(12ee-\L	.
.	12cc\	.
.	12a\J	.
=159	=159	=159
4B-\ 4d\	4b-\)	.
.	(32ee-q/	.
4r	(4ff\)	pp
.	32aaq/	.
4r	4bb-\)	.
4F\ 4e-\	(12ee-\L	.
.	12cc\	.
.	12a\J	.
=160	=160	=160
4B-\ 4d\	4b-\)	.
.	(32eenq/	.
4r	(4ff\)	.
.	32aaq/	.
4r	4bb-\)	.
4F\ 4e-\	(12ee-\L	.
.	12cc\	.
.	12a\J	.
=161	=161	=161
4B-\ 4d\	4b-\	.
.	32eenq/)	.
4r	4ff\	.
.	32aaq/	.
4r	4bb-\	.
32Enq/	32enq/	.
4F\	4f/	f
=162	=162	=162
32Aq/	32aq/	.
4B-\	4b-\	.
4r	4r	.
==	==	==
*-	*-	*-
!!!SMS: Alte Mozart-Ausgabe, Band 20, Breitkopf &amp; H&auml;rtel 1877-1883.
!!!ONB: Stich und Druck von Breitkopf &amp; H&auml;rtel in Leipzig
!!!ONB: Ausgegeben 1878
!!!ENC: Craig Stuart Sapp
!!!END: 2009/10/02/
!!!title: @{OTL}, K 281 (189f), @{OMV}
!!!hum2abc: --no-tempo -s 0.65 --spacing 2.0 -p "%gracespace  0 6.0 12.0"
!!!ONB: not proof-read
